docs/science/organic/油脂.svg

<svg xmlns="http://www.w3.org/2000/svg" xmlns:xlink="http://www.w3.org/1999/xlink" width="694" height="219" x="0" y="0" version="1.1" viewBox="920 561 694 219"><g><g><rect width="694" height="219" x="920" y="561" fill="none" stroke="none"/><rect width="694" height="219" x="920" y="561" fill="none" fill-opacity="1" stroke="none"/><g><g><text x="962.628" y="617.516" fill="#000" stroke="none" dominant-baseline="alphabetic" font-family="Arial" font-size="17pt" font-style="normal" font-weight="normal" text-anchor="middle" text-decoration="normal" transform="scale(1,1)">C</text><text x="927.709" y="617.016" fill="#000" stroke="none" dominant-baseline="alphabetic" font-family="Arial" font-size="17pt" font-style="normal" font-weight="normal" text-anchor="start" text-decoration="normal" transform="scale(1,1)">H</text><text x="944.074" y="608.516" fill="#000" stroke="none" dominant-baseline="hanging" font-family="Arial" font-size="13pt" font-style="normal" font-weight="normal" text-anchor="start" text-decoration="normal" transform="scale(1,1)">2</text></g><g><text x="962.628" y="677.516" fill="#000" stroke="none" dominant-baseline="alphabetic" font-family="Arial" font-size="17pt" font-style="normal" font-weight="normal" text-anchor="middle" text-decoration="normal" transform="scale(1,1)">C</text><text x="937.876" y="677.016" fill="#000" stroke="none" dominant-baseline="alphabetic" font-family="Arial" font-size="17pt" font-style="normal" font-weight="normal" text-anchor="start" text-decoration="normal" transform="scale(1,1)">H</text></g><g><path fill="none" stroke="#111" stroke-linecap="round" stroke-linejoin="round" stroke-miterlimit="10" stroke-width="1.46" d="M 962.6280000000002 624.816 L 962.6280000000002 656.6160000000002" paint-order="fill stroke markers" transform="scale(1,1)"/></g><g><text x="1002.628" y="617.516" fill="#000" stroke="none" dominant-baseline="alphabetic" font-family="Arial" font-size="17pt" font-style="normal" font-weight="normal" text-anchor="middle" text-decoration="normal" transform="scale(1,1)">O</text><text x="1011.589" y="617.016" fill="#000" stroke="none" dominant-baseline="alphabetic" font-family="Arial" font-size="17pt" font-style="normal" font-weight="normal" text-anchor="start" text-decoration="normal" transform="scale(1,1)">H</text></g><g><path fill="none" stroke="#111" stroke-linecap="round" stroke-linejoin="round" stroke-miterlimit="10" stroke-width="1.46" d="M 974.1280000000002 608.5160000000001 L 991.6280000000002 608.5160000000001" paint-order="fill stroke markers" transform="scale(1,1)"/></g><g><text x="1002.628" y="677.516" fill="#000" stroke="none" dominant-baseline="alphabetic" font-family="Arial" font-size="17pt" font-style="normal" font-weight="normal" text-anchor="middle" text-decoration="normal" transform="scale(1,1)">O</text><text x="1011.589" y="677.016" fill="#000" stroke="none" dominant-baseline="alphabetic" font-family="Arial" font-size="17pt" font-style="normal" font-weight="normal" text-anchor="start" text-decoration="normal" transform="scale(1,1)">H</text></g><g><path fill="none" stroke="#111" stroke-linecap="round" stroke-linejoin="round" stroke-miterlimit="10" stroke-width="1.46" d="M 974.1280000000002 668.5160000000002 L 991.6280000000002 668.5160000000002" paint-order="fill stroke markers" transform="scale(1,1)"/></g><g><text x="962.628" y="737.516" fill="#000" stroke="none" dominant-baseline="alphabetic" font-family="Arial" font-size="17pt" font-style="normal" font-weight="normal" text-anchor="middle" text-decoration="normal" transform="scale(1,1)">C</text><text x="927.709" y="737.016" fill="#000" stroke="none" dominant-baseline="alphabetic" font-family="Arial" font-size="17pt" font-style="normal" font-weight="normal" text-anchor="start" text-decoration="normal" transform="scale(1,1)">H</text><text x="944.074" y="728.516" fill="#000" stroke="none" dominant-baseline="hanging" font-family="Arial" font-size="13pt" font-style="normal" font-weight="normal" text-anchor="start" text-decoration="normal" transform="scale(1,1)">2</text></g><g><path fill="none" stroke="#111" stroke-linecap="round" stroke-linejoin="round" stroke-miterlimit="10" stroke-width="1.46" d="M 962.6280000000002 680.4160000000002 L 962.6280000000002 716.6160000000002" paint-order="fill stroke markers" transform="scale(1,1)"/></g><g><text x="1002.628" y="737.516" fill="#000" stroke="none" dominant-baseline="alphabetic" font-family="Arial" font-size="17pt" font-style="normal" font-weight="normal" text-anchor="middle" text-decoration="normal" transform="scale(1,1)">O</text><text x="1011.589" y="737.016" fill="#000" stroke="none" dominant-baseline="alphabetic" font-family="Arial" font-size="17pt" font-style="normal" font-weight="normal" text-anchor="start" text-decoration="normal" transform="scale(1,1)">H</text></g><g><path fill="none" stroke="#111" stroke-linecap="round" stroke-linejoin="round" stroke-miterlimit="10" stroke-width="1.46" d="M 974.1280000000002 728.5160000000002 L 991.6280000000002 728.5160000000002" paint-order="fill stroke markers" transform="scale(1,1)"/></g><g><text x="1477.076" y="627.516" fill="#000" stroke="none" dominant-baseline="alphabetic" font-family="Arial" font-size="17pt" font-style="normal" font-weight="normal" text-anchor="middle" text-decoration="normal" transform="scale(1,1)">C</text><text x="1442.157" y="627.016" fill="#000" stroke="none" dominant-baseline="alphabetic" font-family="Arial" font-size="17pt" font-style="normal" font-weight="normal" text-anchor="start" text-decoration="normal" transform="scale(1,1)">H</text><text x="1458.522" y="618.516" fill="#000" stroke="none" dominant-baseline="hanging" font-family="Arial" font-size="13pt" font-style="normal" font-weight="normal" text-anchor="start" text-decoration="normal" transform="scale(1,1)">2</text></g><g><text x="1477.076" y="697.516" fill="#000" stroke="none" dominant-baseline="alphabetic" font-family="Arial" font-size="17pt" font-style="normal" font-weight="normal" text-anchor="middle" text-decoration="normal" transform="scale(1,1)">C</text><text x="1452.324" y="697.016" fill="#000" stroke="none" dominant-baseline="alphabetic" font-family="Arial" font-size="17pt" font-style="normal" font-weight="normal" text-anchor="start" text-decoration="normal" transform="scale(1,1)">H</text></g><g><path fill="none" stroke="#111" stroke-linecap="round" stroke-linejoin="round" stroke-miterlimit="10" stroke-width="1.46" d="M 1477.0760000000005 634.816 L 1477.0760000000005 676.6160000000002" paint-order="fill stroke markers" transform="scale(1,1)"/></g><g><text x="1517.076" y="627.516" fill="#000" stroke="none" dominant-baseline="alphabetic" font-family="Arial" font-size="17pt" font-style="normal" font-weight="normal" text-anchor="middle" text-decoration="normal" transform="scale(1,1)">O</text></g><g><path fill="none" stroke="#111" stroke-linecap="round" stroke-linejoin="round" stroke-miterlimit="10" stroke-width="1.46" d="M 1488.5760000000005 618.5160000000001 L 1506.0760000000005 618.5160000000001" paint-order="fill stroke markers" transform="scale(1,1)"/></g><g><text x="1477.076" y="767.516" fill="#000" stroke="none" dominant-baseline="alphabetic" font-family="Arial" font-size="17pt" font-style="normal" font-weight="normal" text-anchor="middle" text-decoration="normal" transform="scale(1,1)">C</text><text x="1442.157" y="767.016" fill="#000" stroke="none" dominant-baseline="alphabetic" font-family="Arial" font-size="17pt" font-style="normal" font-weight="normal" text-anchor="start" text-decoration="normal" transform="scale(1,1)">H</text><text x="1458.522" y="758.516" fill="#000" stroke="none" dominant-baseline="hanging" font-family="Arial" font-size="13pt" font-style="normal" font-weight="normal" text-anchor="start" text-decoration="normal" transform="scale(1,1)">2</text></g><g><path fill="none" stroke="#111" stroke-linecap="round" stroke-linejoin="round" stroke-miterlimit="10" stroke-width="1.46" d="M 1477.0760000000005 700.4160000000002 L 1477.0760000000005 746.6160000000002" paint-order="fill stroke markers" transform="scale(1,1)"/></g><g><text x="1517.076" y="767.516" fill="#000" stroke="none" dominant-baseline="alphabetic" font-family="Arial" font-size="17pt" font-style="normal" font-weight="normal" text-anchor="middle" text-decoration="normal" transform="scale(1,1)">O</text></g><g><path fill="none" stroke="#111" stroke-linecap="round" stroke-linejoin="round" stroke-miterlimit="10" stroke-width="1.46" d="M 1488.5760000000005 758.5160000000002 L 1506.0760000000005 758.5160000000002" paint-order="fill stroke markers" transform="scale(1,1)"/></g><g><text x="1517.076" y="697.516" fill="#000" stroke="none" dominant-baseline="alphabetic" font-family="Arial" font-size="17pt" font-style="normal" font-weight="normal" text-anchor="middle" text-decoration="normal" transform="scale(1,1)">O</text></g><g><path fill="none" stroke="#111" stroke-linecap="round" stroke-linejoin="round" stroke-miterlimit="10" stroke-width="1.46" d="M 1488.5760000000005 688.5160000000002 L 1506.0760000000005 688.5160000000002" paint-order="fill stroke markers" transform="scale(1,1)"/></g><g><text x="1557.076" y="767.516" fill="#000" stroke="none" dominant-baseline="alphabetic" font-family="Arial" font-size="17pt" font-style="normal" font-weight="normal" text-anchor="middle" text-decoration="normal" transform="scale(1,1)">C</text></g><g><path fill="none" stroke="#111" stroke-linecap="round" stroke-linejoin="round" stroke-miterlimit="10" stroke-width="1.46" d="M 1529.0760000000005 758.5160000000002 L 1546.5760000000005 758.5160000000002" paint-order="fill stroke markers" transform="scale(1,1)"/></g><g><text x="1557.076" y="587.516" fill="#000" stroke="none" dominant-baseline="alphabetic" font-family="Arial" font-size="17pt" font-style="normal" font-weight="normal" text-anchor="middle" text-decoration="normal" transform="scale(1,1)">O</text></g><g><text x="1557.076" y="627.516" fill="#000" stroke="none" dominant-baseline="alphabetic" font-family="Arial" font-size="17pt" font-style="normal" font-weight="normal" text-anchor="middle" text-decoration="normal" transform="scale(1,1)">C</text></g><g><path fill="none" stroke="#111" stroke-linecap="round" stroke-linejoin="round" stroke-miterlimit="10" stroke-width="1.46" d="M 1529.0760000000005 618.5160000000001 L 1546.5760000000005 618.5160000000001" paint-order="fill stroke markers" transform="scale(1,1)"/></g><g><path fill="none" stroke="#111" stroke-linecap="round" stroke-linejoin="round" stroke-miterlimit="10" stroke-width="1.46" d="M 1559.4761021662098 606.6160000000001 L 1559.4761021662098 590.416 M 1554.6758978337912 606.6160000000001 L 1554.6758978337912 590.416" paint-order="fill stroke markers" transform="scale(1,1)"/></g><g><text x="1557.076" y="697.516" fill="#000" stroke="none" dominant-baseline="alphabetic" font-family="Arial" font-size="17pt" font-style="normal" font-weight="normal" text-anchor="middle" text-decoration="normal" transform="scale(1,1)">C</text></g><g><path fill="none" stroke="#111" stroke-linecap="round" stroke-linejoin="round" stroke-miterlimit="10" stroke-width="1.46" d="M 1529.0760000000005 688.5160000000002 L 1546.5760000000005 688.5160000000002" paint-order="fill stroke markers" transform="scale(1,1)"/></g><text x="1597.076" y="627.016" fill="#000" stroke="none" dominant-baseline="alphabetic" font-family="Arial" font-size="17pt" font-style="normal" font-weight="normal" text-anchor="middle" text-decoration="normal" transform="scale(1,1)">R</text><g><path fill="none" stroke="#111" stroke-linecap="round" stroke-linejoin="round" stroke-miterlimit="10" stroke-width="1.46" d="M 1568.5760000000005 618.5160000000001 L 1586.5760000000005 618.5160000000001" paint-order="fill stroke markers" transform="scale(1,1)"/></g><text x="1597.076" y="697.016" fill="#000" stroke="none" dominant-baseline="alphabetic" font-family="Arial" font-size="17pt" font-style="normal" font-weight="normal" text-anchor="middle" text-decoration="normal" transform="scale(1,1)">R</text><g><path fill="none" stroke="#111" stroke-linecap="round" stroke-linejoin="round" stroke-miterlimit="10" stroke-width="1.46" d="M 1568.5760000000005 688.5160000000002 L 1586.5760000000005 688.5160000000002" paint-order="fill stroke markers" transform="scale(1,1)"/></g><text x="1597.076" y="767.016" fill="#000" stroke="none" dominant-baseline="alphabetic" font-family="Arial" font-size="17pt" font-style="normal" font-weight="normal" text-anchor="middle" text-decoration="normal" transform="scale(1,1)">R</text><g><path fill="none" stroke="#111" stroke-linecap="round" stroke-linejoin="round" stroke-miterlimit="10" stroke-width="1.46" d="M 1568.5760000000005 758.5160000000002 L 1586.5760000000005 758.5160000000002" paint-order="fill stroke markers" transform="scale(1,1)"/></g><g><text x="1557.076" y="657.516" fill="#000" stroke="none" dominant-baseline="alphabetic" font-family="Arial" font-size="17pt" font-style="normal" font-weight="normal" text-anchor="middle" text-decoration="normal" transform="scale(1,1)">O</text></g><g><path fill="none" stroke="#111" stroke-linecap="round" stroke-linejoin="round" stroke-miterlimit="10" stroke-width="1.46" d="M 1559.4761021662098 676.6160000000002 L 1559.4761021662098 660.4160000000002 M 1554.6758978337912 676.6160000000002 L 1554.6758978337912 660.4160000000002" paint-order="fill stroke markers" transform="scale(1,1)"/></g><g><text x="1557.076" y="727.516" fill="#000" stroke="none" dominant-baseline="alphabetic" font-family="Arial" font-size="17pt" font-style="normal" font-weight="normal" text-anchor="middle" text-decoration="normal" transform="scale(1,1)">O</text></g><g><path fill="none" stroke="#111" stroke-linecap="round" stroke-linejoin="round" stroke-miterlimit="10" stroke-width="1.46" d="M 1559.4761021662098 746.6160000000002 L 1559.4761021662098 730.4160000000002 M 1554.6758978337912 746.6160000000002 L 1554.6758978337912 730.4160000000002" paint-order="fill stroke markers" transform="scale(1,1)"/></g><g><text x="1109.302" y="679.286" fill="#000" stroke="none" dominant-baseline="alphabetic" font-family="'Times New Roman'" font-size="22.857" font-style="normal" font-weight="400" text-anchor="start" text-decoration="normal" transform="scale(1,1)">3HOOC</text><text x="1185.485" y="679.286" fill="#000" stroke="none" dominant-baseline="alphabetic" font-family="'Times New Roman'" font-size="22.857" font-style="normal" font-weight="400" text-anchor="start" text-decoration="normal" transform="scale(1,1)">-</text><text x="1193.096" y="679.286" fill="#000" stroke="none" dominant-baseline="alphabetic" font-family="'Times New Roman'" font-size="22.857" font-style="normal" font-weight="400" text-anchor="start" text-decoration="normal" transform="scale(1,1)">R</text></g><g><path fill="none" stroke="#000" stroke-miterlimit="10" stroke-width=".309" d="M 1256.1588799612864 670.7142857142858 L 1398.6588799612864 670.7142857142858" paint-order="fill stroke markers" transform="scale(1,1)"/></g><g><path fill="#000" stroke="#000" stroke-miterlimit="10" stroke-width=".309" d="M 1398.6588799612864 670.7142857142858 L 1396.9268291537176 667.7142857142858 L 1406.1588799612864 670.7142857142858 L 1396.9268291537176 673.7142857142858 Z" paint-order="stroke fill markers" transform="scale(1,1)"/></g><g><text x="1055.802" y="672.214" fill="#000" stroke="none" dominant-baseline="alphabetic" font-family="Arial" font-size="26.667" font-style="normal" font-weight="400" text-anchor="start" text-decoration="normal" transform="scale(1,1)">+</text></g></g></g></g></svg>

<svg viewBox="920 561 694 219"><path fill="none" d="M920 561h694v219H920z"/><path fill="none" d="M920 561h694v219H920z"/><g font-family="Arial"><text x="962.6" y="617.5" dominant-baseline="alphabetic" font-size="17pt" text-anchor="middle" text-decoration="normal">C</text><text x="927.7" y="617" dominant-baseline="alphabetic" font-size="17pt" text-decoration="normal">H</text><text x="944.1" y="608.5" dominant-baseline="hanging" font-size="13pt" text-decoration="normal">2</text></g><g dominant-baseline="alphabetic" font-family="Arial" font-size="17pt"><text x="962.6" y="677.5" text-anchor="middle" text-decoration="normal">C</text><text x="937.9" y="677" text-decoration="normal">H</text></g><path fill="none" stroke="#111" stroke-linecap="round" stroke-linejoin="round" stroke-miterlimit="10" stroke-width="1.5" d="M962.6 624.8v31.8" paint-order="fill stroke markers"/><g dominant-baseline="alphabetic" font-family="Arial" font-size="17pt"><text x="1002.6" y="617.5" text-anchor="middle" text-decoration="normal">O</text><text x="1011.6" y="617" text-decoration="normal">H</text></g><path fill="none" stroke="#111" stroke-linecap="round" stroke-linejoin="round" stroke-miterlimit="10" stroke-width="1.5" d="M974.1 608.5h17.5" paint-order="fill stroke markers"/><g dominant-baseline="alphabetic" font-family="Arial" font-size="17pt"><text x="1002.6" y="677.5" text-anchor="middle" text-decoration="normal">O</text><text x="1011.6" y="677" text-decoration="normal">H</text></g><path fill="none" stroke="#111" stroke-linecap="round" stroke-linejoin="round" stroke-miterlimit="10" stroke-width="1.5" d="M974.1 668.5h17.5" paint-order="fill stroke markers"/><g font-family="Arial"><text x="962.6" y="737.5" dominant-baseline="alphabetic" font-size="17pt" text-anchor="middle" text-decoration="normal">C</text><text x="927.7" y="737" dominant-baseline="alphabetic" font-size="17pt" text-decoration="normal">H</text><text x="944.1" y="728.5" dominant-baseline="hanging" font-size="13pt" text-decoration="normal">2</text></g><path fill="none" stroke="#111" stroke-linecap="round" stroke-linejoin="round" stroke-miterlimit="10" stroke-width="1.5" d="M962.6 680.4v36.2" paint-order="fill stroke markers"/><g dominant-baseline="alphabetic" font-family="Arial" font-size="17pt"><text x="1002.6" y="737.5" text-anchor="middle" text-decoration="normal">O</text><text x="1011.6" y="737" text-decoration="normal">H</text></g><path fill="none" stroke="#111" stroke-linecap="round" stroke-linejoin="round" stroke-miterlimit="10" stroke-width="1.5" d="M974.1 728.5h17.5" paint-order="fill stroke markers"/><g font-family="Arial"><text x="1477.1" y="627.5" dominant-baseline="alphabetic" font-size="17pt" text-anchor="middle" text-decoration="normal">C</text><text x="1442.2" y="627" dominant-baseline="alphabetic" font-size="17pt" text-decoration="normal">H</text><text x="1458.5" y="618.5" dominant-baseline="hanging" font-size="13pt" text-decoration="normal">2</text></g><g dominant-baseline="alphabetic" font-family="Arial" font-size="17pt"><text x="1477.1" y="697.5" text-anchor="middle" text-decoration="normal">C</text><text x="1452.3" y="697" text-decoration="normal">H</text></g><path fill="none" stroke="#111" stroke-linecap="round" stroke-linejoin="round" stroke-miterlimit="10" stroke-width="1.5" d="M1477 634.8v41.8" paint-order="fill stroke markers"/><text x="1517.1" y="627.5" dominant-baseline="alphabetic" font-family="Arial" font-size="17pt" text-anchor="middle" text-decoration="normal">O</text><path fill="none" stroke="#111" stroke-linecap="round" stroke-linejoin="round" stroke-miterlimit="10" stroke-width="1.5" d="M1488.6 618.5h17.5" paint-order="fill stroke markers"/><g font-family="Arial"><text x="1477.1" y="767.5" dominant-baseline="alphabetic" font-size="17pt" text-anchor="middle" text-decoration="normal">C</text><text x="1442.2" y="767" dominant-baseline="alphabetic" font-size="17pt" text-decoration="normal">H</text><text x="1458.5" y="758.5" dominant-baseline="hanging" font-size="13pt" text-decoration="normal">2</text></g><path fill="none" stroke="#111" stroke-linecap="round" stroke-linejoin="round" stroke-miterlimit="10" stroke-width="1.5" d="M1477 700.4v46.2" paint-order="fill stroke markers"/><text x="1517.1" y="767.5" dominant-baseline="alphabetic" font-family="Arial" font-size="17pt" text-anchor="middle" text-decoration="normal">O</text><path fill="none" stroke="#111" stroke-linecap="round" stroke-linejoin="round" stroke-miterlimit="10" stroke-width="1.5" d="M1488.6 758.5h17.5" paint-order="fill stroke markers"/><text x="1517.1" y="697.5" dominant-baseline="alphabetic" font-family="Arial" font-size="17pt" text-anchor="middle" text-decoration="normal">O</text><path fill="none" stroke="#111" stroke-linecap="round" stroke-linejoin="round" stroke-miterlimit="10" stroke-width="1.5" d="M1488.6 688.5h17.5" paint-order="fill stroke markers"/><text x="1557.1" y="767.5" dominant-baseline="alphabetic" font-family="Arial" font-size="17pt" text-anchor="middle" text-decoration="normal">C</text><path fill="none" stroke="#111" stroke-linecap="round" stroke-linejoin="round" stroke-miterlimit="10" stroke-width="1.5" d="M1529 758.5h17.6" paint-order="fill stroke markers"/><text x="1557.1" y="587.5" dominant-baseline="alphabetic" font-family="Arial" font-size="17pt" text-anchor="middle" text-decoration="normal">O</text><text x="1557.1" y="627.5" dominant-baseline="alphabetic" font-family="Arial" font-size="17pt" text-anchor="middle" text-decoration="normal">C</text><path fill="none" stroke="#111" stroke-linecap="round" stroke-linejoin="round" stroke-miterlimit="10" stroke-width="1.5" d="M1529 618.5h17.6m12.9-11.9v-16.2m-4.8 16.2v-16.2" paint-order="fill stroke markers"/><text x="1557.1" y="697.5" dominant-baseline="alphabetic" font-family="Arial" font-size="17pt" text-anchor="middle" text-decoration="normal">C</text><path fill="none" stroke="#111" stroke-linecap="round" stroke-linejoin="round" stroke-miterlimit="10" stroke-width="1.5" d="M1529 688.5h17.6" paint-order="fill stroke markers"/><text x="1597.1" y="627" dominant-baseline="alphabetic" font-family="Arial" font-size="17pt" text-anchor="middle" text-decoration="normal">R</text><path fill="none" stroke="#111" stroke-linecap="round" stroke-linejoin="round" stroke-miterlimit="10" stroke-width="1.5" d="M1568.6 618.5h18" paint-order="fill stroke markers"/><text x="1597.1" y="697" dominant-baseline="alphabetic" font-family="Arial" font-size="17pt" text-anchor="middle" text-decoration="normal">R</text><path fill="none" stroke="#111" stroke-linecap="round" stroke-linejoin="round" stroke-miterlimit="10" stroke-width="1.5" d="M1568.6 688.5h18" paint-order="fill stroke markers"/><text x="1597.1" y="767" dominant-baseline="alphabetic" font-family="Arial" font-size="17pt" text-anchor="middle" text-decoration="normal">R</text><path fill="none" stroke="#111" stroke-linecap="round" stroke-linejoin="round" stroke-miterlimit="10" stroke-width="1.5" d="M1568.6 758.5h18" paint-order="fill stroke markers"/><text x="1557.1" y="657.5" dominant-baseline="alphabetic" font-family="Arial" font-size="17pt" text-anchor="middle" text-decoration="normal">O</text><path fill="none" stroke="#111" stroke-linecap="round" stroke-linejoin="round" stroke-miterlimit="10" stroke-width="1.5" d="M1559.5 676.6v-16.2m-4.8 16.2v-16.2" paint-order="fill stroke markers"/><text x="1557.1" y="727.5" dominant-baseline="alphabetic" font-family="Arial" font-size="17pt" text-anchor="middle" text-decoration="normal">O</text><path fill="none" stroke="#111" stroke-linecap="round" stroke-linejoin="round" stroke-miterlimit="10" stroke-width="1.5" d="M1559.5 746.6v-16.2m-4.8 16.2v-16.2" paint-order="fill stroke markers"/><g dominant-baseline="alphabetic" font-family="'Times New Roman'" font-size="22.9" font-weight="400"><text x="1109.3" y="679.3" text-decoration="normal">3HOOC</text><text x="1185.5" y="679.3" text-decoration="normal">-</text><text x="1193.1" y="679.3" text-decoration="normal">R</text></g><path fill="none" stroke="#000" stroke-miterlimit="10" stroke-width="0.3" d="M1256.2 670.7h142.5" paint-order="fill stroke markers"/><path stroke="#000" stroke-miterlimit="10" stroke-width="0.3" d="m1398.7 670.7-1.8-3 9.3 3-9.3 3Z" paint-order="stroke fill markers"/><text x="1055.8" y="672.2" dominant-baseline="alphabetic" font-family="Arial" font-size="26.7" font-weight="400" text-decoration="normal">+</text></svg>
